;FLAVOR:Marlin
;TIME:575
;Filament used: 0.389668m
;Layer height: 0.28
;MINX:105.847
;MINY:106.472
;MINZ:0.336
;MAXX:129.165
;MAXY:129.164
;MAXZ:12.826
;Generated with Cura_SteamEngine 4.9.0
M140 S80
M105
M190 S80
M104 S230
M105
M109 S230
M82 ;absolute extrusion mode
; Ender 3 Custom Start G-code
G92 E0 ; Reset Extruder
G28 ; Home all axes
G1 Z2.0 F3000 ; Move Z Axis up little to prevent scratching of Heat Bed
G1 X0.1 Y20 Z0.3 F5000.0 ; Move to start position
G1 X0.1 Y200.0 Z0.3 F1500.0 E15 ; Draw the first line
G1 X0.4 Y200.0 Z0.3 F5000.0 ; Move to side a little
G1 X0.4 Y20 Z0.3 F1500.0 E30 ; Draw the second line
G92 E0 ; Reset Extruder
G1 Z2.0 F3000 ; Move Z Axis up little to prevent scratching of Heat Bed
G1 X5 Y20 Z0.3 F5000.0 ; Move over to prevent blob squish
G92 E0
G92 E0
G1 F2700 E-5
;LAYER_COUNT:42
;LAYER:-5
M107
G0 F9000 X108.409 Y108.209 Z0.336
;TYPE:SUPPORT-INTERFACE
G1 F2700 E0
G1 F1350 X108.704 Y107.95 E0.04387
G1 X108.919 Y107.783 E0.07429
G1 X109.15 Y107.627 E0.10544
G1 X109.418 Y107.469 E0.14021
G1 X109.675 Y107.339 E0.1724
G1 X109.945 Y107.223 E0.20524
G1 X110.201 Y107.131 E0.23564
G1 X110.493 Y107.047 E0.2696
G1 X110.754 Y106.991 E0.29943
G1 X111.074 Y106.943 E0.33559
G1 X111.542 Y106.907 E0.38804
G1 X111.734 Y106.9 E0.40951
G1 X123.307 Y106.9 E1.70284
G1 X123.433 Y106.904 E1.71693
G1 X123.81 Y106.928 E1.75915
G1 X124.108 Y106.965 E1.79271
G1 X124.392 Y107.02 E1.82504
G1 X124.683 Y107.096 E1.85865
G1 X124.941 Y107.18 E1.88897
G1 X125.22 Y107.291 E1.92252
G1 X125.478 Y107.413 E1.95442
G1 X125.737 Y107.557 E1.98754
G1 X125.956 Y107.696 E2.01652
G1 X126.222 Y107.894 E2.05358
G1 X126.576 Y108.198 E2.10573
G1 X126.791 Y108.409 E2.13939
G1 X127.05 Y108.704 E2.18326
G1 X127.217 Y108.919 E2.21369
G1 X127.373 Y109.15 E2.24484
G1 X127.531 Y109.418 E2.2796
G1 X127.663 Y109.677 E2.31209
G1 X127.766 Y109.916 E2.34118
G1 X127.871 Y110.208 E2.37585
G1 X127.952 Y110.49 E2.40864
G1 X128.008 Y110.744 E2.43771
G1 X128.057 Y111.074 E2.47499
G1 X128.093 Y111.535 E2.52667
G1 X128.1 Y111.72 E2.54736
G1 X128.1 Y123.307 E3.84225
G1 X128.096 Y123.433 E3.85634
G1 X128.072 Y123.81 E3.89856
G1 X128.035 Y124.108 E3.93211
G1 X127.98 Y124.392 E3.96444
G1 X127.904 Y124.683 E3.99805
G1 X127.82 Y124.941 E4.02838
G1 X127.709 Y125.22 E4.06193
G1 X127.587 Y125.478 E4.09383
G1 X127.443 Y125.737 E4.12694
G1 X127.304 Y125.956 E4.15593
G1 X127.106 Y126.222 E4.19299
G1 X126.802 Y126.576 E4.24513
G1 X126.591 Y126.791 E4.2788
G1 X126.298 Y127.048 E4.32235
G1 X126.081 Y127.217 E4.35309
G1 X125.85 Y127.373 E4.38424
G1 X125.582 Y127.531 E4.41901
G1 X125.325 Y127.661 E4.4512
G1 X125.056 Y127.776 E4.48389
G1 X124.799 Y127.869 E4.51443
G1 X124.507 Y127.953 E4.54839
G1 X124.246 Y128.009 E4.57822
G1 X123.926 Y128.057 E4.61438
G1 X123.458 Y128.093 E4.66684
G1 X123.266 Y128.1 E4.68831
G1 X111.693 Y128.1 E5.98164
G1 X111.567 Y128.096 E5.99573
G1 X111.19 Y128.072 E6.03794
G1 X110.892 Y128.035 E6.0715
G1 X110.608 Y127.98 E6.10383
G1 X110.317 Y127.904 E6.13744
G1 X110.057 Y127.819 E6.16801
G1 X109.78 Y127.709 E6.20132
G1 X109.521 Y127.586 E6.23336
G1 X109.263 Y127.443 E6.26633
G1 X109.044 Y127.304 E6.29531
G1 X108.778 Y127.106 E6.33237
G1 X108.424 Y126.802 E6.38452
G1 X108.209 Y126.591 E6.41818
G1 X107.95 Y126.296 E6.46205
G1 X107.783 Y126.081 E6.49248
G1 X107.624 Y125.845 E6.52428
G1 X107.469 Y125.582 E6.55839
G1 X107.339 Y125.325 E6.59058
G1 X107.223 Y125.055 E6.62342
G1 X107.131 Y124.799 E6.65382
G1 X107.047 Y124.507 E6.68778
G1 X106.991 Y124.246 E6.71761
G1 X106.943 Y123.926 E6.75377
G1 X106.906 Y123.448 E6.80735
G1 X106.9 Y123.28 E6.82613
G1 X106.9 Y111.693 E8.12103
G1 X106.904 Y111.567 E8.13512
G1 X106.928 Y111.19 E8.17733
G1 X106.965 Y110.892 E8.21089
G1 X107.02 Y110.608 E8.24322
G1 X107.096 Y110.317 E8.27683
G1 X107.18 Y110.059 E8.30715
G1 X107.291 Y109.78 E8.34071
G1 X107.413 Y109.522 E8.3726
G1 X107.552 Y109.272 E8.40457
G1 X107.704 Y109.034 E8.43613
G1 X107.894 Y108.778 E8.47176
G1 X108.198 Y108.424 E8.5239
G1 X108.409 Y108.209 E8.55757
G0 F9000 X108.8 Y107.875
G1 F1350 X108.8 Y127.122 E10.7085
G0 F9000 X110.4 Y127.925
G1 F1350 X110.4 Y107.073 E13.03879
G0 F9000 X112 Y106.9
G1 F1350 X112 Y128.1 E15.40798
G0 F9000 X113.6 Y128.1
G1 F1350 X113.6 Y106.9 E17.77716
G0 F9000 X115.2 Y106.9
G1 F1350 X115.2 Y128.1 E20.14635
G0 F9000 X116.8 Y128.1
G1 F1350 X116.8 Y106.9 E22.51554
G0 F9000 X118.4 Y106.9
G1 F1350 X118.4 Y128.1 E24.88472
G0 F9000 X120 Y128.1
G1 F1350 X120 Y106.9 E27.25391
G0 F9000 X121.6 Y106.9
G1 F1350 X121.6 Y128.1 E29.62309
G0 F9000 X123.2 Y128.1
G1 F1350 X123.2 Y106.9 E31.99228
G0 F9000 X124.8 Y107.135
G1 F1350 X124.8 Y127.869 E34.30939
G0 F9000 X126.4 Y126.959
G1 F1350 X126.4 Y108.047 E36.42288
G0 F9000 X128 Y110.708
G1 F1350 X128 Y124.289 E37.94061
G1 F2700 E32.94061
G0 F9000 X129.02 Y124.625
G0 X128.69 Y125.633
G0 X128.177 Y126.565
G0 X127.3 Y127.585
G0 X126.408 Y128.28
G0 X125.455 Y128.764
G0 X124.435 Y129.058
G0 X123.291 Y129.164
G0 X111.088 Y129.132
G0 X110.021 Y128.927
G0 X109.024 Y128.528
G0 X108.108 Y127.934
G0 X107.415 Y127.3
G0 X106.788 Y126.495
G0 X106.236 Y125.455
G0 X107.2 Y124.991
G1 F2700 E37.94061
G1 F1350 X107.2 Y110.008 E39.61502
G1 F2700 E34.61502
G0 F300 X107.2 Y110.008 Z0.636
G0 F9000 X106.073 Y110.021
G0 X105.868 Y111.088
G0 X105.847 Y122.273
G0 X105.885 Y124.047
G0 X107.089 Y124.226
;TIME_ELAPSED:23.529628
;LAYER:-4
;TYPE:SUPPORT
G1 F2700 E39.61502
G1 F1350 X107.145 Y124.484 E39.64795
G1 X107.226 Y124.768 E39.68479
G1 X107.315 Y125.014 E39.71742
G1 X107.432 Y125.29 E39.75481
G1 X107.555 Y125.529 E39.78833
G1 X107.707 Y125.789 E39.82589
G1 X107.862 Y126.017 E39.86028
G1 X108.035 Y126.24 E39.89548
G1 X108.284 Y126.524 E39.94259
G1 X108.366 Y126.612 E39.95759
G1 X108.488 Y126.726 E39.97842
G1 X108.839 Y127.026 E40.03601
G1 X109.091 Y127.214 E40.07522
G1 X109.319 Y127.359 E40.10893
G1 X109.554 Y127.489 E40.14242
G1 X109.827 Y127.619 E40.18014
G1 X110.092 Y127.725 E40.21573
G1 X110.334 Y127.804 E40.24749
G1 X110.638 Y127.883 E40.28666
G1 X110.906 Y127.935 E40.32071
G1 X110.972 Y127.943 E40.329
G1 X107.059 Y124.03 E41.01921
G1 X107.042 Y123.915 E41.03371
G1 X107.005 Y123.44 E41.09313
G1 X107 Y123.26 E41.11559
G1 X107 Y122.273 E41.2387
G1 X112.725 Y127.999 E42.24861
G1 X114.422 Y127.999 E42.46027
G1 X107 Y120.576 E43.76951
G1 X107 Y118.879 E43.98117
G1 X116.119 Y127.999 E45.58975
G1 X117.816 Y127.999 E45.80141
G1 X107 Y117.182 E47.70931
G1 X107 Y115.485 E47.92097
G1 X119.513 Y127.999 E50.12821
G1 X121.21 Y127.999 E50.33987
G1 X107 Y113.788 E52.84644
G1 X107 Y112.091 E53.0581
G1 X122.907 Y127.999 E55.864
G1 X123.262 Y127.999 E55.90827
G1 X123.448 Y127.991 E55.93149
G1 X123.916 Y127.956 E55.99003
G1 X124.227 Y127.909 E56.02926
G1 X124.464 Y127.859 E56.05947
G1 X107.141 Y110.535 E59.11514
G1 X107.194 Y110.334 E59.14106
G1 X107.273 Y110.095 E59.17246
G1 X107.379 Y109.826 E59.20852
G1 X107.509 Y109.554 E59.24612
G1 X107.632 Y109.33 E59.27799
G1 X125.667 Y127.364 E62.45907
G1 X125.792 Y127.289 E62.47726
G1 X126.019 Y127.137 E62.51133
G1 X126.241 Y126.963 E62.54651
G1 X126.524 Y126.715 E62.59344
G1 X126.613 Y126.632 E62.60862
G1 X126.623 Y126.623 E62.6103
G1 X108.376 Y108.376 E65.82886
G1 X108.386 Y108.366 E65.83062
G1 X108.474 Y108.283 E65.84571
G1 X108.757 Y108.035 E65.89264
G1 X108.98 Y107.862 E65.92785
G1 X109.206 Y107.709 E65.96189
G1 X109.332 Y107.635 E65.98011
G1 X127.366 Y125.669 E69.1611
G1 X127.489 Y125.444 E69.19308
G1 X127.619 Y125.172 E69.23069
G1 X127.726 Y124.904 E69.26668
G1 X127.805 Y124.662 E69.29843
G1 X127.857 Y124.463 E69.32408
G1 X110.534 Y107.14 E72.37966
G1 X110.771 Y107.089 E72.4099
G1 X111.083 Y107.043 E72.44923
G1 X111.551 Y107.007 E72.50778
G1 X111.737 Y107 E72.53099
G1 X112.091 Y107 E72.57514
G1 X127.999 Y122.907 E75.38104
G1 X127.999 Y121.21 E75.5927
G1 X113.788 Y107 E78.09927
G1 X115.485 Y107 E78.31093
G1 X127.999 Y119.513 E80.51817
G1 X127.999 Y117.816 E80.72983
G1 X117.182 Y107 E82.63773
G1 X118.879 Y107 E82.84939
G1 X127.999 Y116.119 E84.45797
G1 X127.999 Y114.422 E84.66963
G1 X120.576 Y107 E85.97887
G1 X122.273 Y107 E86.19053
G1 X127.999 Y112.725 E87.20044
G1 X127.999 Y111.738 E87.32355
G1 X127.993 Y111.558 E87.34601
G1 X127.956 Y111.083 E87.40543
G1 X127.939 Y110.969 E87.41981
G1 X124.026 Y107.055 E88.11011
G1 X124.092 Y107.063 E88.1184
G1 X124.36 Y107.115 E88.15245
G1 X124.664 Y107.194 E88.19162
G1 X124.906 Y107.273 E88.22338
G1 X125.172 Y107.379 E88.25909
G1 X125.444 Y107.509 E88.29669
G1 X125.679 Y107.64 E88.33025
G1 X125.907 Y107.784 E88.36388
G1 X126.159 Y107.973 E88.40317
G1 X126.51 Y108.272 E88.46068
G1 X126.632 Y108.386 E88.48151
G1 X126.715 Y108.475 E88.49668
G1 X126.964 Y108.759 E88.54379
G1 X127.137 Y108.981 E88.5789
G1 X127.29 Y109.208 E88.61304
G1 X127.443 Y109.469 E88.65078
G1 X127.569 Y109.716 E88.68536
G1 X127.674 Y109.957 E88.71815
G1 X127.776 Y110.244 E88.75614
G1 X127.858 Y110.528 E88.79301
G1 X127.907 Y110.752 E88.8216
G1 F2700 E83.8216
G0 F300 X127.907 Y110.752 Z0.916
G0 F9000 X128.984 Y110.228
G0 X128.625 Y109.221
G0 X128.077 Y108.292
G0 X127.278 Y107.398
G0 X126.467 Y106.783
G0 X125.976 Y106.472
G0 X125.285 Y107.1
;TIME_ELAPSED:42.612604
;LAYER:-3
;TYPE:SUPPORT-INTERFACE
G1 F2700 E88.8216
G1 F1575 X125.015 Y106.993 E88.83513
G1 X124.73 Y106.9 E88.84909
G1 X124.435 Y106.823 E88.86328
G1 X124.14 Y106.766 E88.87728
G1 X123.837 Y106.728 E88.89149
G1 X123.433 Y106.703 E88.91034
G1 X123.314 Y106.699 E88.91589
G1 X111.727 Y106.7 E89.45543
G1 X111.528 Y106.707 E89.4647
G1 X111.056 Y106.743 E89.48674
G1 X110.714 Y106.794 E89.50284
G1 X110.44 Y106.854 E89.5159
G1 X110.155 Y106.935 E89.5297
G1 X109.867 Y107.039 E89.54396
G1 X109.582 Y107.161 E89.55839
G1 X109.505 Y107.2 E89.56241
G1 X125.496 Y107.2 E90.30702
G1 X125.586 Y107.243 E90.31166
G1 X125.834 Y107.381 E90.32488
G1 X126.081 Y107.538 E90.33851
G1 X126.347 Y107.736 E90.35395
G1 X126.655 Y108 E90.37284
G1 X108.344 Y108 E91.22547
G1 X108.277 Y108.058 E91.2296
G1 X108.173 Y108.154 E91.23619
G1 X108.046 Y108.293 E91.24496
G1 X107.746 Y108.642 E91.26639
G1 X107.629 Y108.8 E91.27554
G1 X127.379 Y108.8 E92.19519
G1 X127.552 Y109.058 E92.20965
G1 X127.71 Y109.326 E92.22414
G1 X127.839 Y109.581 E92.23744
G1 X127.848 Y109.6 E92.23842
G1 X107.156 Y109.6 E93.20193
G1 X107.1 Y109.718 E93.20801
G1 X106.994 Y109.985 E93.22139
G1 X106.901 Y110.27 E93.23535
G1 X106.867 Y110.4 E93.2416
G1 X128.136 Y110.4 E94.23198
G1 X128.145 Y110.433 E94.23357
G1 X128.204 Y110.701 E94.24635
G1 X128.257 Y111.056 E94.26306
G1 X128.269 Y111.2 E94.26979
G1 X106.727 Y111.2 E95.27288
G1 X106.704 Y111.567 E95.29
G1 X106.7 Y111.686 E95.29554
G1 X106.7 Y112 E95.31016
G1 X128.3 Y112 E96.31595
G1 X128.3 Y112.8 E96.3532
G1 X106.7 Y112.8 E97.35899
G1 X106.7 Y113.6 E97.39624
G1 X128.3 Y113.6 E98.40203
G1 X128.3 Y114.4 E98.43928
G1 X106.7 Y114.4 E99.44506
G1 X106.7 Y115.2 E99.48231
G1 X128.3 Y115.2 E100.4881
G1 X128.3 Y116 E100.52535
G1 X106.7 Y116 E101.53114
G1 X106.7 Y116.8 E101.56839
G1 X128.3 Y116.8 E102.57418
G1 X128.3 Y117.6 E102.61143
G1 X106.7 Y117.6 E103.61721
G1 X106.7 Y118.4 E103.65447
G1 X128.3 Y118.4 E104.66025
G1 X128.299 Y119.2 E104.6975
G1 X106.699 Y119.2 E105.70329
G1 X106.699 Y120 E105.74054
G1 X128.299 Y120 E106.74633
G1 X128.299 Y120.8 E106.78358
G1 X106.699 Y120.8 E107.78937
G1 X106.699 Y121.6 E107.82662
G1 X128.299 Y121.6 E108.8324
G1 X128.299 Y122.4 E108.86966
G1 X106.699 Y122.4 E109.87544
G1 X106.699 Y123.2 E109.91269
G1 X128.299 Y123.2 E110.91848
G1 X128.299 Y123.313 E110.92374
G1 X128.295 Y123.432 E110.92929
G1 X128.27 Y123.836 E110.94813
G1 X128.249 Y124 E110.95583
G1 X106.75 Y124 E111.95692
G1 X106.793 Y124.285 E111.97034
G1 X106.851 Y124.554 E111.98315
G1 X106.921 Y124.8 E111.99506
G1 X128.074 Y124.8 E112.98003
G1 X128.005 Y125.014 E112.9905
G1 X127.899 Y125.281 E113.00388
G1 X127.756 Y125.584 E113.01948
G1 X127.747 Y125.6 E113.02033
G1 X107.252 Y125.6 E113.97467
G1 X107.289 Y125.673 E113.97848
G1 X107.445 Y125.938 E113.9928
G1 X107.622 Y126.201 E114.00756
G1 X107.777 Y126.4 E114.0193
G1 X127.215 Y126.4 E114.92442
G1 X126.953 Y126.706 E114.94318
G1 X126.826 Y126.845 E114.95194
G1 X126.722 Y126.941 E114.95853
G1 X126.436 Y127.192 E114.97625
G1 X126.425 Y127.2 E114.97689
G1 X108.578 Y127.2 E115.80792
G1 X108.652 Y127.263 E115.81244
G1 X108.918 Y127.461 E115.82788
G1 X109.165 Y127.618 E115.84151
G1 X109.413 Y127.756 E115.85473
G1 X109.714 Y127.899 E115.87024
G1 X109.967 Y128 E115.88293
G1 X125.021 Y128 E116.58391
G1 X124.844 Y128.064 E116.59267
G1 X124.559 Y128.145 E116.60647
G1 X124.285 Y128.205 E116.61953
G1 X123.943 Y128.256 E116.63563
G1 X123.471 Y128.292 E116.65767
G1 X123.272 Y128.299 E116.66694
G1 X111.685 Y128.3 E117.20648
G1 X111.566 Y128.296 E117.21203
G1 X111.162 Y128.271 E117.23087
G1 X110.859 Y128.233 E117.24509
G1 X110.564 Y128.176 E117.25908
G1 X110.267 Y128.098 E117.27338
G1 X109.983 Y128.006 E117.28728
G1 F2700 E112.28728
G0 F300 X109.983 Y128.006 Z1.496
G0 F9000 X110.021 Y128.927
G0 X111.088 Y129.132
G0 X123.516 Y129.156
G0 X124.771 Y128.984
G0 X125.778 Y128.626
G0 X126.708 Y128.077
G0 X127.602 Y127.278
G0 X128.362 Y126.275
G0 X128.817 Y125.315
G0 X129.087 Y124.276
G0 X129.108 Y124.009
G0 X129.165 Y122.1
G0 X122.1 Y122.1
;TIME_ELAPSED:68.596662
;LAYER:0
;TYPE:WALL-INNER
;MESH:A04_Cubo_Calculo_Densidade.stl
G1 F2700 E117.28728
G1 F1800 X112.9 Y122.1 E117.71567
G1 X112.9 Y112.9 E118.14407
G1 X122.1 Y112.9 E118.57246
G1 X122.1 Y122.1 E119.00085
G0 F9000 X122.5 Y122.5
G1 F1800 X112.5 Y122.5 E119.46649
G1 X112.5 Y112.5 E119.93213
G1 X122.5 Y112.5 E120.39777
G1 X122.5 Y122.5 E120.86341
G0 F9000 X122.9 Y122.9
G1 F1800 X112.1 Y122.9 E121.36631
G1 X112.1 Y112.1 E121.8692
G1 X122.9 Y112.1 E122.37209
G1 X122.9 Y122.9 E122.87499
G0 F9000 X123.3 Y123.3
;TYPE:WALL-OUTER
G1 F1800 X111.7 Y123.3 E123.41513
G1 X111.7 Y111.7 E123.95528
G1 X123.3 Y111.7 E124.49542
G1 X123.3 Y123.3 E125.03557
G0 F9000 X123.03 Y123.03
G0 X121.99 Y121.71
G0 X121.71 Y121.71
;TYPE:SKIN
G1 F1800 X113.29 Y121.71 E125.42764
G1 X113.29 Y113.29 E125.81971
G1 X121.71 Y113.29 E126.21178
G1 X121.71 Y121.71 E126.60385
G0 F9000 X121.99 Y121.71
G0 X121.99 Y113.629
G0 X121.549 Y113.629
G1 F1800 X121.369 Y113.45 E126.61567
G0 F9000 X120.804 Y113.45
G1 F1800 X121.549 Y114.195 E126.66473
G0 F9000 X121.549 Y114.761
G1 F1800 X120.238 Y113.45 E126.75106
G0 F9000 X119.672 Y113.45
G1 F1800 X121.549 Y115.326 E126.87463
G0 F9000 X121.549 Y115.892
G1 F1800 X119.107 Y113.45 E127.03544
G0 F9000 X118.541 Y113.45
G1 F1800 X121.549 Y116.458 E127.23352
G0 F9000 X121.549 Y117.024
G1 F1800 X117.975 Y113.45 E127.46888
G0 F9000 X117.41 Y113.45
G1 F1800 X121.549 Y117.589 E127.74144
G0 F9000 X121.549 Y118.155
G1 F1800 X116.844 Y113.45 E128.05127
G0 F9000 X116.278 Y113.45
G1 F1800 X121.549 Y118.721 E128.39837
G0 F9000 X121.549 Y119.286
G1 F1800 X115.713 Y113.45 E128.78268
G0 F9000 X115.147 Y113.45
G1 F1800 X121.549 Y119.852 E129.20427
G0 F9000 X121.549 Y120.418
G1 F1800 X114.581 Y113.45 E129.66312
G0 F9000 X114.016 Y113.45
G1 F1800 X121.549 Y120.983 E130.15918
G0 F9000 X121.549 Y121.549
G1 F1800 X113.449 Y113.449 E130.69258
G0 F9000 X113.449 Y114.015
G1 F1800 X120.983 Y121.549 E131.18871
G0 F9000 X120.418 Y121.549
G1 F1800 X113.449 Y114.58 E131.64763
G0 F9000 X113.449 Y115.146
G1 F1800 X119.852 Y121.549 E132.06928
G0 F9000 X119.286 Y121.549
G1 F1800 X113.449 Y115.712 E132.45365
G0 F9000 X113.449 Y116.278
G1 F1800 X118.721 Y121.549 E132.80079
G0 F9000 X118.155 Y121.549
G1 F1800 X113.449 Y116.843 E133.11069
G0 F9000 X113.449 Y117.409
G1 F1800 X117.589 Y121.549 E133.38331
G0 F9000 X117.024 Y121.549
G1 F1800 X113.449 Y117.975 E133.6187
G0 F9000 X113.449 Y118.54
G1 F1800 X116.458 Y121.549 E133.81685
G0 F9000 X115.892 Y121.549
G1 F1800 X113.449 Y119.106 E133.97772
G0 F9000 X113.449 Y119.672
G1 F1800 X115.326 Y121.549 E134.10133
G0 F9000 X114.761 Y121.549
G1 F1800 X113.449 Y120.237 E134.18772
G0 F9000 X113.449 Y120.803
G1 F1800 X114.195 Y121.549 E134.23685
G0 F9000 X113.629 Y121.549
G1 F1800 X113.449 Y121.369 E134.2487
G0 F9000 X112.71 Y121.369
;MESH:NONMESH
G0 F300 X112.71 Y121.369 Z1.626
G0 F9000 X113.082 Y121.918
G0 X122.1 Y122.1
;TIME_ELAPSED:85.093852
;LAYER:1
M106 S42.5
