;FLAVOR:Marlin
;TIME:2036
;Filament used: 0.954422m
;Layer height: 0.28
;MINX:104.336
;MINY:111.199
;MINZ:0.336
;MAXX:130.664
;MAXY:124.664
;MAXZ:56.066
;Generated with Cura_SteamEngine 4.10.0
M140 S80
M105
M190 S80
M104 S225
M105
M109 S225
M82 ;absolute extrusion mode
; Ender 3 Custom Start G-code
G92 E0 ; Reset Extruder
G28 ; Home all axes
G1 Z2.0 F3000 ; Move Z Axis up little to prevent scratching of Heat Bed
G1 X0.1 Y20 Z0.3 F5000.0 ; Move to start position
G1 X0.1 Y200.0 Z0.3 F1500.0 E15 ; Draw the first line
G1 X0.4 Y200.0 Z0.3 F5000.0 ; Move to side a little
G1 X0.4 Y20 Z0.3 F1500.0 E30 ; Draw the second line
G92 E0 ; Reset Extruder
G1 Z2.0 F3000 ; Move Z Axis up little to prevent scratching of Heat Bed
G1 X5 Y20 Z0.3 F5000.0 ; Move over to prevent blob squish
G92 E0
G92 E0
G1 F2700 E-5
;LAYER_COUNT:196
;LAYER:-5
M107
G0 F9000 X106.909 Y112.709 Z0.336
;TYPE:SUPPORT-INTERFACE
G1 F2700 E0
G1 F1125 X107.204 Y112.45 E0.04387
G1 X107.419 Y112.283 E0.07429
G1 X107.65 Y112.127 E0.10544
G1 X107.918 Y111.969 E0.14021
G1 X108.175 Y111.839 E0.1724
G1 X108.445 Y111.723 E0.20524
G1 X108.701 Y111.631 E0.23564
G1 X108.993 Y111.547 E0.2696
G1 X109.254 Y111.491 E0.29943
G1 X109.574 Y111.443 E0.33559
G1 X110.042 Y111.407 E0.38804
G1 X110.234 Y111.4 E0.40951
G1 X124.807 Y111.4 E2.03811
G1 X124.933 Y111.404 E2.05219
G1 X125.31 Y111.428 E2.09441
G1 X125.608 Y111.465 E2.12797
G1 X125.892 Y111.52 E2.1603
G1 X126.183 Y111.596 E2.19391
G1 X126.441 Y111.68 E2.22423
G1 X126.72 Y111.791 E2.25779
G1 X126.978 Y111.913 E2.28968
G1 X127.237 Y112.057 E2.3228
G1 X127.456 Y112.196 E2.35179
G1 X127.722 Y112.394 E2.38884
G1 X128.076 Y112.698 E2.44099
G1 X128.291 Y112.909 E2.47465
G1 X128.55 Y113.204 E2.51853
G1 X128.717 Y113.419 E2.54895
G1 X128.873 Y113.65 E2.5801
G1 X129.031 Y113.918 E2.61487
G1 X129.163 Y114.177 E2.64735
G1 X129.266 Y114.416 E2.67644
G1 X129.371 Y114.708 E2.71112
G1 X129.452 Y114.99 E2.7439
G1 X129.508 Y115.244 E2.77297
G1 X129.557 Y115.574 E2.81025
G1 X129.593 Y116.035 E2.86193
G1 X129.6 Y116.22 E2.88262
G1 X129.6 Y118.807 E3.17173
G1 X129.596 Y118.933 E3.18582
G1 X129.572 Y119.31 E3.22803
G1 X129.535 Y119.608 E3.26159
G1 X129.48 Y119.892 E3.29392
G1 X129.404 Y120.183 E3.32753
G1 X129.32 Y120.441 E3.35785
G1 X129.209 Y120.72 E3.39141
G1 X129.087 Y120.978 E3.4233
G1 X128.943 Y121.237 E3.45642
G1 X128.804 Y121.456 E3.48541
G1 X128.606 Y121.722 E3.52246
G1 X128.302 Y122.076 E3.57461
G1 X128.091 Y122.291 E3.60828
G1 X127.798 Y122.548 E3.65183
G1 X127.581 Y122.717 E3.68257
G1 X127.35 Y122.873 E3.71372
G1 X127.082 Y123.031 E3.74849
G1 X126.825 Y123.161 E3.78067
G1 X126.556 Y123.276 E3.81337
G1 X126.299 Y123.369 E3.84391
G1 X126.01 Y123.452 E3.87751
G1 X125.74 Y123.511 E3.9084
G1 X125.429 Y123.557 E3.94353
G1 X124.958 Y123.593 E3.99632
G1 X124.765 Y123.6 E4.0179
G1 X110.192 Y123.597 E5.6465
G1 X110.064 Y123.593 E5.66081
G1 X109.689 Y123.569 E5.7028
G1 X109.391 Y123.532 E5.73636
G1 X109.107 Y123.477 E5.76869
G1 X108.816 Y123.401 E5.8023
G1 X108.556 Y123.316 E5.83287
G1 X108.279 Y123.206 E5.86617
G1 X108.029 Y123.087 E5.89712
G1 X107.757 Y122.936 E5.93188
G1 X107.538 Y122.796 E5.96093
G1 X107.274 Y122.6 E5.99768
G1 X106.923 Y122.299 E6.04935
G1 X106.709 Y122.088 E6.08294
G1 X106.45 Y121.793 E6.12681
G1 X106.283 Y121.578 E6.15723
G1 X106.126 Y121.345 E6.18863
G1 X105.969 Y121.079 E6.22315
G1 X105.839 Y120.822 E6.25533
G1 X105.723 Y120.552 E6.28817
G1 X105.63 Y120.292 E6.31903
G1 X105.547 Y120.004 E6.35253
G1 X105.491 Y119.743 E6.38236
G1 X105.443 Y119.423 E6.41852
G1 X105.406 Y118.945 E6.4721
G1 X105.4 Y118.777 E6.49089
G1 X105.4 Y116.193 E6.77966
G1 X105.404 Y116.067 E6.79375
G1 X105.428 Y115.69 E6.83596
G1 X105.465 Y115.392 E6.86952
G1 X105.52 Y115.108 E6.90185
G1 X105.596 Y114.817 E6.93546
G1 X105.68 Y114.559 E6.96578
G1 X105.791 Y114.28 E6.99934
G1 X105.913 Y114.022 E7.03123
G1 X106.052 Y113.772 E7.0632
G1 X106.204 Y113.534 E7.09476
G1 X106.394 Y113.278 E7.13039
G1 X106.698 Y112.924 E7.18253
G1 X106.909 Y112.709 E7.2162
G0 F9000 X108 Y111.927
G1 F1125 X108 Y123.07 E8.46147
G0 F9000 X110 Y123.588
G1 F1125 X110 Y111.41 E9.82241
G0 F9000 X112 Y111.4
G1 F1125 X112 Y123.597 E11.18548
G0 F9000 X114 Y123.597
G1 F1125 X114 Y111.4 E12.54854
G0 F9000 X116 Y111.4
G1 F1125 X116 Y123.598 E13.91172
G0 F9000 X118 Y123.598
G1 F1125 X118 Y111.4 E15.27489
G0 F9000 X120 Y111.4
G1 F1125 X120 Y123.599 E16.63818
G0 F9000 X122 Y123.599
G1 F1125 X122 Y111.4 E18.00147
G0 F9000 X124 Y111.4
G1 F1125 X124 Y123.599 E19.36476
G0 F9000 X126 Y123.455
G1 F1125 X126 Y111.549 E20.6953
G0 F9000 X128 Y112.633
G1 F1125 X128 Y122.371 E21.78356
G1 F2700 E16.78356
G0 F9000 X128.483 Y123.363
G0 X127.594 Y123.965
G0 X126.613 Y124.387
G0 X125.547 Y124.616
G0 X124.79 Y124.664
G0 X109.587 Y124.629
G0 X108.52 Y124.424
G0 X107.532 Y124.029
G0 X106.612 Y123.434
G0 X105.985 Y122.861
G0 X105.22 Y121.905
G0 X106 Y121.131
G1 F2700 E21.78356
G1 F1125 X106 Y113.865 E22.59557
G1 F2700 E17.59557
G0 F300 X106 Y113.865 Z0.756
G0 F9000 X104.81 Y113.867
G0 X104.48 Y114.875
G0 X104.336 Y116.17
G0 X104.385 Y119.544
G0 X105.491 Y119.742
;TIME_ELAPSED:18.199989
;LAYER:-4
;TYPE:SUPPORT
G1 F2700 E22.59557
G1 F1125 X105.547 Y120.003 E22.63286
G1 X105.629 Y120.29 E22.67455
G1 X105.723 Y120.551 E22.7133
G1 X105.839 Y120.821 E22.75435
G1 X105.969 Y121.078 E22.79459
G1 X106.126 Y121.344 E22.83773
G1 X106.283 Y121.577 E22.87698
G1 X106.449 Y121.792 E22.91493
G1 X106.708 Y122.086 E22.96966
G1 X106.795 Y122.18 E22.98755
G1 X106.923 Y122.298 E23.01187
G1 X107.273 Y122.599 E23.07636
G1 X107.537 Y122.795 E23.12229
G1 X107.756 Y122.935 E23.1586
G1 X108.028 Y123.086 E23.20206
G1 X108.279 Y123.204 E23.2408
G1 X108.556 Y123.315 E23.28249
G1 X108.815 Y123.4 E23.32057
G1 X109.106 Y123.476 E23.36258
G1 X109.388 Y123.53 E23.40269
G1 X105.471 Y119.613 E24.17651
G1 X105.443 Y119.422 E24.20348
G1 X105.406 Y118.944 E24.27045
G1 X105.4 Y118.776 E24.29394
G1 X105.399 Y118.127 E24.3846
G1 X110.867 Y123.595 E25.46483
G1 X112.282 Y123.595 E25.66249
G1 X105.399 Y116.713 E27.02217
G1 X105.399 Y116.191 E27.09509
G1 X105.404 Y116.065 E27.1127
G1 X105.428 Y115.689 E27.16533
G1 X105.464 Y115.391 E27.20726
G1 X105.469 Y115.368 E27.21055
G1 X113.697 Y123.596 E28.83603
G1 X115.112 Y123.597 E29.0337
G1 X105.791 Y114.276 E30.87511
G1 X105.913 Y114.02 E30.91473
G1 X106.052 Y113.771 E30.95456
G1 X106.203 Y113.533 E30.99394
G1 X106.313 Y113.384 E31.01981
G1 X116.526 Y123.597 E33.03744
G1 X117.941 Y123.598 E33.2351
G1 X106.985 Y112.642 E35.39952
G1 X107.203 Y112.449 E35.44019
G1 X107.418 Y112.282 E35.47822
G1 X107.649 Y112.125 E35.51724
G1 X107.797 Y112.039 E35.54115
G1 X119.355 Y123.598 E37.82459
G1 X120.77 Y123.598 E38.02225
G1 X108.779 Y111.608 E40.39104
G1 X108.993 Y111.546 E40.42216
G1 X109.254 Y111.49 E40.45945
G1 X109.573 Y111.442 E40.50451
G1 X109.996 Y111.41 E40.56377
G1 X122.184 Y123.598 E42.97157
G1 X123.599 Y123.599 E43.16924
G1 X111.399 Y111.399 E45.57941
G1 X112.813 Y111.399 E45.77694
G1 X125.003 Y123.589 E48.18513
G1 X125.428 Y123.557 E48.24467
G1 X125.739 Y123.511 E48.28859
G1 X126.009 Y123.452 E48.3272
G1 X126.219 Y123.39 E48.35778
G1 X114.228 Y111.399 E50.72667
G1 X115.642 Y111.399 E50.92419
G1 X127.202 Y122.959 E53.20793
G1 X127.349 Y122.873 E53.23172
G1 X127.58 Y122.716 E53.27074
G1 X127.797 Y122.547 E53.30916
G1 X128.013 Y122.357 E53.34934
G1 X117.056 Y111.399 E55.51405
G1 X118.47 Y111.399 E55.71158
G1 X128.685 Y121.614 E57.72961
G1 X128.803 Y121.456 E57.75715
G1 X128.941 Y121.236 E57.79343
G1 X129.085 Y120.978 E57.83471
G1 X129.207 Y120.722 E57.87432
G1 X119.885 Y111.399 E59.71603
G1 X121.299 Y111.399 E59.91355
G1 X129.529 Y119.63 E61.53953
G1 X129.534 Y119.607 E61.54282
G1 X129.571 Y119.31 E61.58463
G1 X129.594 Y118.933 E61.63739
G1 X129.599 Y118.807 E61.655
G1 X129.599 Y118.285 E61.72792
G1 X122.713 Y111.399 E63.08829
G1 X124.127 Y111.399 E63.28581
G1 X129.599 Y116.871 E64.36684
G1 X129.599 Y116.219 E64.45792
G1 X129.592 Y116.035 E64.48364
G1 X129.556 Y115.573 E64.54837
G1 X129.528 Y115.386 E64.57478
G1 X125.606 Y111.464 E65.3496
G1 X125.891 Y111.519 E65.39014
G1 X126.182 Y111.596 E65.43219
G1 X126.439 Y111.679 E65.46992
G1 X126.719 Y111.79 E65.51199
G1 X126.977 Y111.913 E65.55192
G1 X127.236 Y112.057 E65.59332
G1 X127.455 Y112.195 E65.62948
G1 X127.721 Y112.393 E65.6758
G1 X128.074 Y112.697 E65.74088
G1 X128.203 Y112.815 E65.7653
G1 X128.29 Y112.909 E65.78319
G1 X128.549 Y113.203 E65.83792
G1 X128.716 Y113.419 E65.87606
G1 X128.872 Y113.649 E65.91489
G1 X129.03 Y113.917 E65.95835
G1 X129.162 Y114.177 E65.99908
G1 X129.265 Y114.416 E66.03543
G1 X129.37 Y114.707 E66.07865
G1 X129.451 Y114.989 E66.11964
G1 X129.507 Y115.243 E66.15597
G0 F300 X129.507 Y115.243 Z1.036
G0 F9000 X129.704 Y115.201
;TIME_ELAPSED:35.663716
;LAYER:-3
;TYPE:SUPPORT-INTERFACE
G1 F1500 X129.757 Y115.556 E66.17268
G1 X129.761 Y115.6 E66.17474
G1 X105.237 Y115.6 E67.31668
G1 X105.229 Y115.663 E67.31964
G1 X105.209 Y116 E67.33536
G1 X129.791 Y116 E68.48
G1 X129.793 Y116.027 E68.48126
G1 X129.8 Y116.219 E68.49021
G1 X129.8 Y116.4 E68.49863
G1 X105.2 Y116.4 E69.64411
G1 X105.2 Y116.8 E69.66274
G1 X129.8 Y116.8 E70.80822
G1 X129.8 Y117.2 E70.82684
G1 X105.2 Y117.2 E71.97232
G1 X105.2 Y117.6 E71.99095
G1 X129.8 Y117.6 E73.13643
G1 X129.8 Y118 E73.15505
G1 X105.2 Y118 E74.30053
G1 X105.2 Y118.4 E74.31916
G1 X129.8 Y118.4 E75.46464
G1 X129.8 Y118.8 E75.48326
G1 X105.2 Y118.8 E76.62874
G1 X105.206 Y118.969 E76.63662
G1 X105.223 Y119.2 E76.6474
G1 X129.778 Y119.2 E77.79079
G1 X129.77 Y119.336 E77.79713
G1 X129.737 Y119.6 E77.80952
G1 X105.265 Y119.6 E78.94904
G1 X105.293 Y119.782 E78.95761
G1 X105.34 Y120 E78.96799
G1 X129.657 Y120 E80.1003
G1 X129.598 Y120.229 E80.11131
G1 X129.542 Y120.4 E80.11969
G1 X105.455 Y120.4 E81.24128
G1 X105.538 Y120.63 E81.25266
G1 X105.61 Y120.8 E81.26126
G1 X129.39 Y120.8 E82.36856
G1 X129.256 Y121.084 E82.38318
G1 X129.191 Y121.2 E82.38937
G1 X105.806 Y121.2 E83.47827
G1 X105.947 Y121.438 E83.49116
G1 X106.056 Y121.6 E83.50025
G1 X128.945 Y121.6 E84.56605
G1 X128.762 Y121.846 E84.58033
G1 X128.629 Y122 E84.58981
G1 X106.363 Y122 E85.6266
G1 X106.553 Y122.216 E85.64
G1 X106.653 Y122.324 E85.64685
G1 X106.736 Y122.4 E85.65209
G1 X128.266 Y122.4 E86.65462
G1 X128.222 Y122.441 E86.65742
G1 X127.936 Y122.692 E86.67514
G1 X127.797 Y122.8 E86.68334
G1 X107.205 Y122.8 E87.64219
G1 X107.418 Y122.958 E87.65454
G1 X107.646 Y123.104 E87.66714
G1 X107.818 Y123.2 E87.67631
G1 X127.187 Y123.2 E88.57822
G1 X127.172 Y123.209 E88.57903
G1 X126.917 Y123.338 E88.59234
G1 X126.633 Y123.46 E88.60673
G1 X126.344 Y123.564 E88.62103
G1 X126.216 Y123.6 E88.62722
G1 X126.058 Y123.645 E88.63487
G1 X125.784 Y123.706 E88.64794
G1 X125.444 Y123.756 E88.66395
G1 X124.971 Y123.792 E88.68603
G1 X124.771 Y123.799 E88.69535
G1 X110.185 Y123.797 E89.37454
G1 X110.064 Y123.793 E89.38018
G1 X109.661 Y123.768 E89.39898
G1 X109.358 Y123.73 E89.4132
G1 X109.063 Y123.673 E89.42719
G0 F9000 X108.785 Y123.6
G1 F1500 X126.216 Y123.6 E90.23885
G1 F2700 E85.23885
G0 F9000 X126.613 Y124.387
G0 X127.594 Y123.965
G0 X128.483 Y123.363
G0 X129.102 Y122.778
G0 X129.862 Y121.775
G0 X130.317 Y120.815
G0 X130.587 Y119.776
G0 X130.664 Y118.83
G0 X130.625 Y116.095
G0 X130.559 Y115.074
G0 X129.704 Y115.2
G1 F2700 E90.23885
G1 F1500 X105.298 Y115.2 E91.37529
G1 X105.325 Y115.059 E91.38198
G1 X105.394 Y114.8 E91.39446
G1 X129.607 Y114.8 E92.52192
G1 X129.562 Y114.645 E92.52943
G1 X129.474 Y114.4 E92.54155
G1 X105.528 Y114.4 E93.65658
G1 X105.6 Y114.218 E93.66569
G1 X105.704 Y114 E93.67694
G1 X129.299 Y114 E94.77562
G1 X129.21 Y113.826 E94.78472
G1 X129.077 Y113.6 E94.79693
G1 X105.924 Y113.6 E95.87504
G1 X106.035 Y113.426 E95.88465
G1 X106.203 Y113.2 E95.89776
G1 X128.801 Y113.2 E96.95002
G1 X128.693 Y113.062 E96.95818
G1 X128.464 Y112.8 E96.97438
G1 X106.54 Y112.8 E97.99525
G1 X106.546 Y112.793 E97.99568
G1 X106.673 Y112.654 E98.00445
G1 X106.777 Y112.558 E98.01104
G1 X106.958 Y112.4 E98.02223
G1 X128.039 Y112.4 E99.00385
G1 X127.847 Y112.236 E99.0156
G1 X127.581 Y112.038 E99.03104
G1 X127.522 Y112 E99.03431
G1 X107.482 Y112 E99.96746
G1 X107.559 Y111.948 E99.97179
G1 X107.827 Y111.79 E99.98627
G1 X108.082 Y111.661 E99.99958
G1 X108.225 Y111.6 E100.00682
G1 X126.785 Y111.6 E100.87105
G1 X126.515 Y111.493 E100.88457
G1 X126.23 Y111.4 E100.89853
G1 X125.935 Y111.323 E100.91273
G1 X125.64 Y111.266 E100.92672
G1 X125.337 Y111.228 E100.94094
G1 X124.933 Y111.203 E100.95979
G1 X124.844 Y111.2 E100.96393
G1 X110.227 Y111.2 E101.64456
G1 X124.814 Y111.199 E102.32379
G0 F300 X124.814 Y111.199 Z1.616
G0 F9000 X123.6 Y117.6
;TIME_ELAPSED:69.274850
;LAYER:0
;TYPE:WALL-INNER
;MESH:A07_Regua_Espessura.stl
G1 F716.8 X111.4 Y117.597 E102.89188
G1 X111.4 Y117.4 E102.90105
G1 X123.6 Y117.4 E103.18367
G1 X123.6 Y117.6 E103.19298
G0 F6000 X124 Y118
G1 F716.8 X123.801 Y118 E103.20225
G1 X111 Y117.997 E103.79832
G1 X111 Y117 E103.84474
G1 X124 Y117 E104.45007
G1 X124 Y117.801 E104.48737
G1 X124 Y118 E104.49337
G0 F6000 X124.4 Y118.4
G1 F716.8 X124.201 Y118.4 E104.50263
G1 X110.6 Y118.397 E105.13595
G1 X110.6 Y116.6 E105.21963
G1 X124.4 Y116.6 E105.86222
G1 X124.4 Y118.201 E105.93676
G1 X124.4 Y118.4 E105.94276
G0 F6000 X124.8 Y118.8
;TYPE:WALL-OUTER
G1 F716.8 X110.2 Y118.797 E106.6226
G1 X110.2 Y116.2 E106.74352
G1 X124.8 Y116.2 E107.42336
G1 X124.8 Y118.8 E107.54443
G0 F6000 X124.2 Y118.318
;MESH:NONMESH
G0 F300 X124.2 Y118.318 Z1.746
G0 F6000 X111.4 Y117.592
;TIME_ELAPSED:79.838543
;LAYER:1
M106 S42.5
;TYPE:WALL-INNER
;MESH:A07_Regua_Espessura.stl
G1 F718.8 X111.4 Y117.4 E107.55337
G1 X123.6 Y117.4 E108.12145
G1 X123.6 Y117.591 E108.13035
G1 X111.4 Y117.592 E108.403
G0 F7500 X111 Y117.992
G1 F718.8 X111 Y117.793 E108.41226
G1 X111 Y117 E108.44919
G1 X124 Y117 E109.05452
G1 X124 Y117.991 E109.10067
G1 X111.199 Y117.992 E109.69674
G1 X111 Y117.992 E109.70273
G0 F7500 X110.6 Y118.392
G1 F718.8 X110.6 Y118.193 E109.712
G1 X110.6 Y116.6 E109.78617
G1 X124.4 Y116.6 E110.42876
G1 X124.4 Y118.391 E110.51216
G1 X110.799 Y118.392 E111.14548
G1 X110.6 Y118.392 E111.15147
G0 F7500 X110.2 Y118.792
;TYPE:WALL-OUTER
G1 F718.8 X110.2 Y116.2 E111.27217
G1 X124.8 Y116.2 E111.952
G1 X124.8 Y118.791 E112.07265
G1 X110.2 Y118.792 E112.75249
G0 F7500 X110.683 Y118.191
;MESH:NONMESH
G0 F300 X110.683 Y118.191 Z2.026
G0 F7500 X111.4 Y117.586
;TIME_ELAPSED:90.170276
;LAYER:2
M106 S85
;TYPE:WALL-INNER
;MESH:A07_Regua_Espessura.stl
G1 F711.3 X111.4 Y117.4 E112.76115
G1 X123.6 Y117.4 E113.32923
G1 X123.6 Y117.585 E113.33785
G1 X111.4 Y117.586 E113.60195
G0 F9000 X111 Y117.986
G1 F711.3 X111 Y117.787 E113.61122
G1 X111 Y117 E113.64787
G1 X124 Y117 E114.2532
G1 X124 Y117.985 E114.29907
G1 X111.199 Y117.986 E114.89514
G1 X111 Y117.986 E114.90113
G0 F9000 X110.6 Y118.386
G1 F711.3 X110.6 Y118.187 E114.9104
G1 X110.6 Y116.6 E114.98429
G1 X124.4 Y116.6 E115.62688
G1 X124.4 Y118.385 E115.71
G1 X110.799 Y118.386 E116.34332
G1 X110.6 Y118.386 E116.34931
G0 F9000 X110.2 Y118.786
;TYPE:WALL-OUTER
G1 F711.3 X110.2 Y116.2 E116.46973
G1 X124.8 Y116.2 E117.14956
G1 X124.8 Y118.785 E117.26993
G1 X110.2 Y118.786 E117.94977
G0 F9000 X110.683 Y118.185
;MESH:NONMESH
G0 F300 X110.683 Y118.185 Z2.306
G0 F9000 X111.4 Y117.581
;TIME_ELAPSED:100.601723
;LAYER:3
M106 S127.5
;TYPE:WALL-INNER
;MESH:A07_Regua_Espessura.stl
G1 F711.1 X111.4 Y117.4 E117.9582
G1 X123.6 Y117.4 E118.52628
G1 X123.6 Y117.58 E118.53466
G1 X111.4 Y117.581 E118.79165
G0 F9000 X111 Y117.981
G1 F711.1 X111 Y117.782 E118.80092
G1 X111 Y117 E118.83733
G1 X124 Y117 E119.44267
G1 X124 Y117.98 E119.4883
G1 X111.199 Y117.981 E120.08437
G1 X111 Y117.981 E120.09036
G0 F9000 X110.6 Y118.381
G1 F711.1 X110.6 Y118.182 E120.09963
G1 X110.6 Y116.6 E120.17329
G1 X124.4 Y116.6 E120.81588
G1 X124.4 Y118.38 E120.89876
G1 X110.799 Y118.381 E121.53208
G1 X110.6 Y118.381 E121.53808
G0 F9000 X110.2 Y118.781
;TYPE:WALL-OUTER
G1 F711.1 X110.2 Y116.2 E121.65826
G1 X124.8 Y116.2 E122.3381
G1 X124.8 Y118.78 E122.45823
G1 X110.2 Y118.781 E123.13807
G0 F9000 X110.683 Y118.18
;MESH:NONMESH
G0 F300 X110.683 Y118.18 Z2.586
G0 F9000 X111.959 Y117.4
;TIME_ELAPSED:111.055619
;LAYER:4
